X:260
T:Vostre beaulté (Chanson 13)
S:from bay13.MID
C:Manuscript de Bayeux (fin XVe)
R:Chanson
M:4/4
L:1/8
Q:1/4=104
K:F 
V:1
F4 G2 GG | A3G/2F/2 F2zF | B2 GA A3/2G/2 FA | G3/2F/2 G2 F4 | 
c4 d2 Bc | d2 e2 f2 d2 | A2 c2 F2 G2 | F4 c4 | 
d2 dd2<e2e | d2 cF B4 | A4 A3/2B/2 cA | d3c2<B2A/2G/2 | 
F3G A2 B2 | F3/2A/2 G2 F4 | F4 G2 GG | A3G/2F/2 F3z | 
FB GB A3/2G/2 FA | G3/2F/2 G2 F4 | c4 d2 Bc | d2 e2 f2 d2 | 
A2 c2 F2 G2 | F8 |]
V:2
FF/2F/2 FF GG/2G/2 GG | AA/2A/2 AG/2F/2 FF/2F/2 FF | BB/2B/2 GA AA/2G/2 FA | GG/2F/2 GG/2G/2 FF/2F/2 F2 | 
cc/2c/2 cc dd/2d/2 Bc | dd/2d/2 ee/2e/2 ff/2f/2 dd | AA/2A/2 cc FF/2F/2 GG | FF/2F/2 F2 cc/2c/2 cc | 
dd/2d/2 dd/2d/2 ee/2e/2 ee | dd/2d/2 cF BB/2B/2 B2 | AA/2A/2 AA A3/2B/2 cA | dd/2d/2 dc BB/2B/2 BA/2G/2 | 
FF/2F/2 FG AA/2A/2 BB | F3/2A/2 GG FF/2F/2 F2 | FF/2F/2 FF GG/2G/2 GG | AA/2A/2 AG/2F/2 FF/2F/2 FF | 
FB GB A3/2G/2 FA | G3/2F/2 GG/2G/2 FF/2F/2 FF | cc/2c/2 cc dd/2d/2 Bc | dd/2d/2 ee/2e/2 ff/2f/2 dd | 
AA cc FF/2F/2 GG | FF/2F/2 FF F4 |]
V:3 clef=treble
F4 G4 | A4 F2z2 | B4 A4 | G4 F4 | 
c4 d4 | d2 e2 f4 | A4 F4 | F4 c4 | 
d4 e4 | d2 c2 B4 | A4 A4 | d4 B4 | 
F4 A2 B2 | F2 G2 F4 | F4 G4 | A4 F2z2 | 
F2 G2 A2 F2 | G2 G2 F4 | c4 d4 | d2 e2 f2 d2 | 
A2 c2 F2 G2 | F8 |]





